X:306
T:Wheatley Processional
M:4/4
L:1/8
K:G
e2 | d2 B2 A3 G | A2 E2 D2 D2 | G2 B2 A2 G2 | A4 e4 | 
d2 B2 A3 G | A2 E2 D2 D2 | G2 B2 A2 G2 | d4 G4 || 
B2 d2 g3 e | d2 B2 A2 GA | B2 d2 g2 d2 | 
e4 g3 e | d2 B2 A3 E | E2 E2 D3 D | G2 B2 A2 G2 | d4 G2 || 

